X: 1
T: Over the Water to Charlie
M: 6/8
L: 1/8
K: Gdor
|:B2G GFD|B2G GFD|F2D C2D|F3 FDF|
G2A B2c|def d2c|B2G AGF|1G2d- dcA:|2G3 G2A||
|:B2A B2c|def d2c|B2A B2c|d3 G2A|
B2A B2c|def d2c|B2G AGF|G3 G3:|
